src/assets/icons/fa/copy.svg

<?xml version="1.0" encoding="utf-8"?>
<svg width="1792" height="1792" viewBox="0 0 1792 1792" xmlns="http://www.w3.org/2000/svg"><path d="M1696 384q40 0 68 28t28 68v1216q0 40-28 68t-68 28h-960q-40 0-68-28t-28-68v-288h-544q-40 0-68-28t-28-68v-672q0-40 20-88t48-76l408-408q28-28 76-48t88-20h416q40 0 68 28t28 68v328q68-40 128-40h416zm-544 213l-299 299h299v-299zm-640-384l-299 299h299v-299zm196 647l316-316v-416h-384v416q0 40-28 68t-68 28h-416v640h512v-256q0-40 20-88t48-76zm956 804v-1152h-384v416q0 40-28 68t-68 28h-416v640h896z"/></svg>

<svg width="1792" height="1792" xmlns="http://www.w3.org/2000/svg"><path d="M1696 384q40 0 68 28t28 68v1216q0 40-28 68t-68 28H736q-40 0-68-28t-28-68v-288H96q-40 0-68-28t-28-68V640q0-40 20-88t48-76L476 68q28-28 76-48t88-20h416q40 0 68 28t28 68v328q68-40 128-40h416zm-544 213L853 896h299V597zM512 213L213 512h299V213zm196 647l316-316V128H640v416q0 40-28 68t-68 28H128v640h512v-256q0-40 20-88t48-76zm956 804V512h-384v416q0 40-28 68t-68 28H768v640h896z"/></svg>
